src/assets/desktop/star.svg

<svg width="64" height="64" viewBox="0 0 64 64" fill="none" xmlns="http://www.w3.org/2000/svg">
<circle cx="32" cy="32" r="31" fill="#1261FC" stroke="white" stroke-width="2"/>
<path d="M39.1362 44.196C32.3434 48.1373 23.6416 45.8259 19.7002 39.0335C15.7588 32.2411 18.0702 23.5398 24.863 19.5986C31.6557 15.6573 40.3575 17.9687 44.2989 24.7611C48.2403 31.5535 45.9289 40.2548 39.1362 44.196Z" fill="white"/>
<path d="M27.2164 39.2203C26.7994 39.4333 26.3273 39.058 26.4123 38.5801L27.3164 33.4769L23.5201 29.8489C23.1656 29.5095 23.3512 28.8903 23.8272 28.8242L29.1146 28.0817L31.4793 23.4159C31.6926 22.9954 32.2679 22.9963 32.4798 23.4175L34.8292 28.0911L40.1142 28.8508C40.59 28.9185 40.7735 29.5383 40.4168 29.8765L36.6098 33.4921L37.4972 38.5982C37.5806 39.0764 37.1073 39.4501 36.6911 39.2357L31.9561 36.7933L27.2164 39.2203Z" fill="#1261FC"/>
</svg>

<svg xmlns="http://www.w3.org/2000/svg" width="64" height="64" fill="none"><circle cx="32" cy="32" r="31" fill="#1261FC" stroke="#fff" stroke-width="2"/><path fill="#fff" d="M39.136 44.196c-6.793 3.941-15.494 1.63-19.436-5.163-3.941-6.792-1.63-15.493 5.163-19.434s15.495-1.63 19.436 5.162c3.941 6.793 1.63 15.494-5.163 19.435"/><path fill="#1261FC" d="M27.216 39.22c-.417.213-.889-.162-.804-.64l.904-5.103-3.796-3.628c-.354-.34-.169-.959.307-1.025l5.288-.742 2.364-4.666a.554.554 0 0 1 1 .002l2.35 4.673 5.285.76c.476.068.66.687.303 1.026l-3.807 3.615.887 5.106c.084.478-.39.852-.806.638l-4.735-2.443z"/></svg>
